X:1
T:Se la mia vita
T:Se la mia vita
T:Girolamo Scotto
T:Source : Secondo Libro delle Muse a tre voci---Venetia---G.Scotto---1562. Editor : André Vierendeels (06/06/16).
T:Notes : Original clefs : C3, C4, F4 Editorial accidentals above the staff Original note values have been halved Square bracket indicates ligature Text : Francesco Petrarca (Canzoniere) "Primi toni"        
T:©
T:©
T:©
T:©
T:©
T:©
T:©
T:©
T:©
C:Girolamo Scotto
Z:©
%%score [ 1 2 3 ]
L:1/8
Q:1/4=92
M:2/2
K:F
V:1 treble-8 nm="Tenor 1" snm="T 1"
V:2 treble-8 nm="Tenor 2" snm="T 2"
V:3 bass nm="Bass" snm="B"
V:1
 G8 | d4 _e4 | d4 f4 | e4 d2 f2- | f2 e2 f3 e | d2 f4 c2 | d2 e2 f4 | e2 g2 g2 g2 | f2 e3 def | %9
w: Se|la mia|vi- ta|da l'as- pro|_ tor- men- *|to, da l'as-|pro tor- men-|to, si puo tan-|to scher- * * *|
 g2 c4 d2 | e2 f3 e d2 | c2 d2 _e4 | d6 cB | A4 z2 G2 | G2 G2 F2 F2 | B2 B2 A3 G | AB c2 A2 d2- | %17
w: mi r'et _|_ _ _ da|gl'af- fan- *||ni, ch'i|veg- gia per ver-|tu de gl'ul- *|* * * ti- m'an-|
 dc/B/ c2 d4- | d8 | z2 c2 d3 c | B2 A2 G2 B2 | A4 d2 c2 | d3 e f2 c2- | c2 d4 G2 | B2 A2 B2 c2 | %25
w: * * * * ni,|_|don- na, de|be' vo- str'oc- ch'il|lu- * me|spen- * * *|* to, don-|na,- de be' _|
 d3 c B2 A2 | B2 F2 G2 g2- | g2 f2 e2 f2- | fe d2 f3 e/d/ | c2 d2 _e2 c2 | d3 c B4 | A4 =B4- | %32
w: vo- * str'oc- ch'il|lu- * me, lu-|||me, il lu- *|* * me|spen- to.|
 B8 || G4 G2 G2 | A4 c4- | c2 c2 f4- | f2 _e2 d4 | c2 f4 f2 | d2 d2 f2 g2- | gf _e2 d2 c2- | %40
w: _|E'i ca- pei|d'or fin|_ far- si|_ d'ar- gen-|to, e las-|sar le ghir- land'|_ e ver- di pan-|
 c2 f4 d2 | e2 f3 edc | B2 c4 B2 | G2 B4 A2 | B2 d3 e f2- | f2 e2 f2 d2 | d2 d2 _e2 e2 | %47
w: |||* ni, e'i|ver- di _ pan-|* * ni, e'l|vi- so sco- lo-|
 d4 c2 d2- | d2 cB A2 c2 | c2 c2 d2 c2 | B4 A2 d2 | d2 d2 e2 e2 | f6 ed | c2 B2 A2 c2 | d2 d2 c4 | %55
w: rir _ _|_ _ _ _ che|ne miei dan- *|* ni, al'|la- men- rar mi|fa _ _|_ _ pu- ro-|so'e len- *|
 c2 B2 B2 B2 | c4 B2 d2 | d2 d2 e2 e2 | f6 ed | c6 c2 | f4 e2 f2- | f2 f2 d4 | _e4 d4- | d4 z4 | %64
w: to, pau- ro- so'e|len- to, al'|la- men- tar mi|fa _ _|_ pau-|ro- * so'e|_ len- *|* to,|_|
 z4 z2 f2 | f2 f2 e2 e2 | d2 d2 c4 | A3 B c2 d2- | dc/B/ c2 d4 | z8 | z8 | z4 z2 c2 | c2 c2 B2 A2 | %73
w: pur|mi da- rà tan-|ta bal- danz'|A- * mo- *|* * * * re,|||ch'io|vi dis- co- vri-|
 c4 f2 e2 | d2 g4 f2 | g4 z4 | z8 | d6 d2 | f4 d4 | B4 F3 G | AB c3 BGA | B3 c de f2 | g2 c3 def | %83
w: ro de miei|mar- ti- *|ri,||qua son|sta- ti|gl'an- ni _|_ _ _ _ _ _||* e _ _ _|
 g3 f de f2- | fe d2 c4- | c2 G2 c2 B2 | A4 G4- | G8 |] %88
w: _ _ _ _ i|_ _ _ me-|* si'e l'ho- *|* re.|_|
V:2
 z8 | G8 | B4 A2 d2- | dc/B/ c2 d4 | c4 A4 | B2 B2 A3 G | AB c3 B/A/ B2 | c8 | z2 c2 c2 c2 | %9
w: |Se|la mia vi-||* ta|da l'as- pro tor-|men- * * * * *|to,|si puo tan-|
 B2 A3 GAB | c2 B2 A4- | A2 B2 G3 A | B6 G2- | G2 F2 G4 | z4 z2 D2 | D2 D2 F2 D2 | D2 E2 F2 F2 | %17
w: to scher- mi- * *|r'et da gl'af-|* fan- * *||* * ni,|ch'i|veg- gia per vir-|tu de gl'ul- ti-|
 G4 A2 B2 | B2 B3 A GF | E2 F4 D2 | E2 F2 E2 G2 | F3 E D2 F2 | F2 G2 A3 G | F3 E D2 E2 | F4 G2 A2 | %25
w: m'an- ni, ch'i|veg- gia per vir- *|tu de gl'ul-|ti m'an- ni, don-|na, de be' vo-|str'oc- ch'il lu- *|* * * me|spen- to, don-|
 B3 A G2 c2 | d3 c B3 A | G2 A2 c2 d2- | dc B4 A2- | A2 B2 G2 A2 | B2 A3 G G2- |"^#" G2 F2 G4- | %32
w: na, don- na, de|be' vo- str'oc- ch'il|lu- me spen- *||* to, ch'il lu-|* * me spen-|* * to.|
 G8 || E4 E2 E2 | F4 A4- | A2 G2 A3 B | c2 G3 A B2- | B2 A2 B4 | z2 B4 B2 | G2 G2 B2 A2- | %40
w: _|E'i ca- pei|d'or fin|_ far- si _|_ d'ar- * gen-|* * to,|* e|las- sar le ghir-|
 A2 d4 cB | A6 A2 | G4 F4 | z8 | z2 F2 F2 F2 | G2 G2 F4- | F2 B2 G3 A | B4 F2 F2- | F2 E2 F2 A2 | %49
w: * land' e _|ver- di|pan- ni,||e'l vi- so|sco- lo- rir|_ che ne miei|dan- ni, che|_ ne miei dan-|
 A2 A2 B2 A2- | AG G4 F2 | G8 | z2 D2 D2 D2 | E2 E2 F4- | F2 ED E2 F2 | E2 G4 G2 | F2 E2 D2 F2- | %57
w: ni, che ne miei|_ _ dan- *|ni,|al' la- men-|tar mi fa|_ _ _ _ _|* pau- ro-|so'e len- * *|
 F2 G3 F E2 | D2 B2 A2 F2 | G2 G2 A4 | A2 B2 c2 d2- | dc c4 B2 | c4 z2 B2 | B2 B2 A2 A2 | %64
w: |to, al' la- men-|tar mi fa|pau- ro- so'e _|_ _ len- *|to, pur|mi da- ra tan-|
 G2 c4 BA | B2 A3 BcA | BAGF E2 F2- | FEFG A2 B2- | B2 AG A2 B2- | BABc d2 c2- | cB B3 A A2- | %71
w: ta bal- * *|||* * * * danz' A-|* mo- * * *|||
 A2 G2 A2 E2 | F2 F2 G2 F2- | FG A3 B c2- | c2 B2 A4 | G3 F GA B2 | A2 G4 F2 | G2 B4 AG | %78
w: * * re, ch'io|vi dis- co- vri-|* * ro de miei|_ mar- ti-||||
 A2 B3 AGF | G2 D4 D2 | F4 E2 E2 | D2 G4 F2 | c3 B A2 G2- | G2 c2 B2 A2 | B4 A3 G | F2 E3 F G2- | %86
w: |ri, qua son'|sta- ti gl'an-|* ni e'i|me- * si'e l'ho-||||
"^#" G2 F2 G4- | G8 |] %88
w: * * re.|_|
V:3
 z8 | z8 | D,8 | A,4 B,4 | A,3 G, F,2 D,2 | G,2 D,3 E, F,2- | F,2 E,2 D,4 | C,8 | z8 | %9
w: ||Se|la mia|vi- * ta da|l'as- pro tor- men-||to,||
 z2 F,2 F,2 F,2 | E,2 D,3 C,D,E, | F,2 B,,2 C,4 | G,,6 G,,2 | D,4 E,3 D, | C,2 B,,2 A,,2 B,,2- | %15
w: si puo tan-|to scher- * * *|mi- * *|r'et da|gl'af- fa- *||
 B,,2 A,,G,, F,,2 F,2- | F,2 C,2 D,4 | _E,4 D,2 G,,2 | G,,2 G,,2 B,,2 B,,2 | C,2 A,,2 B,,3 A,, | %20
w: * * * ni, da|_ gl'af- fan-|* ni, ch'i|veg- gia per vir-|tu de gl'ul- *|
 G,,2 F,,2 C,2 G,,2 | D,3 C, B,,2 A,,2 | B,,2 G,,2 F,,3 G,, | A,,2 B,,4 C,2 | D,3 C, B,,2 A,,2 | %25
w: ti- m'an- ni, don-|na, de be' vo-|str'oc ch'il lu- me|spen- to, don-|na, de be' vo-|
"^b" G,,2 D,2 E,2 F,2 |"^b" B,,4 E,4- | E,2 D,2 C,2 B,,2 | F,2 G,2 D,3 E, | F,2 B,,2 C,2 F,2 | %30
w: str'oc- ch'il lu- *|me spen-|* to, don- na,|de be' vo- *|* str'oc- ch'il lu-|
 D,4 G,,4 | D,4 G,,4- | G,,8 || C,4 C,2 C,2 | F,,4 F,4- | F,2 _E,2 D,2 D,2 | D,4 B,,4 | %37
w: * me|spen- to.|_|E'i ca- peu|d'or fin|_ far- si d'ar-|gen- *|
 F,4 z2 B,,2- |"^b" B,,2 B,,2 D,2 E,2- | E,D, C,2 B,,2 F,2- |"^b" F,E,D,C, B,,G,, G,2- | %41
w: to, e|_ las- sar le|_ _ _ ghir- land'|_ _ _ _ _ _ _|
 G,2 F,2 D,2 F,2- | F,2 E,2 F,2 D,2 | _E,2 D,2 C,4 | B,,8 | z4 z2 B,,2 | B,,2 B,,2 C,2 C,2 | %47
w: |* * e'i ver-|di pan- *|ni,|e'l|vi- so sco- lo-|
 B,,2 G,,2 A,,2 B,,2 | G,,4 F,,4- | F,,4 z4 | G,,4 D,2 D,2 | G,,4 C,4 | B,,6 B,,2 | %53
w: rir che ne miei|dan- ni,|_|al' la- men-|tar mi|fa pau-|
 A,,2 G,,2 F,,4 | B,,4 A,,4- | A,,2 G,,2 G,,2 G,,2 | A,,2 A,,2 B,,4- | B,,2 A,,G,, C,4 | %58
w: ro- so'e len-|* to,|_ mi fa pau-|ro- so'e len-||
 B,,2 D,2 D,2 D,2 | E,2 E,2 F,4- | F,2 E,D, C,2 B,,2 | F,2 F,2 G,4 | C,4 z2 G,2 | G,2 G,2 D,2 D,2 | %64
w: to, al' la- men-|tar mi fa|_ _ _ _ pau-|ro- so'e len-|to, pur|mi da- ra tan-|
 E,2 E,2 F,2 F,2 | D,4 C,4 | G,,4 z4 | D,4 C,2 B,,2 |"^b" E,4 D,2 G,2 | G,2 G,2 F,2 E,2 | %70
w: ta bal- danz' A-|mo- *|re,|bal- danz' A-|mo- ch'io vi|dis- co- vri- ro|
 F,2 D,2 C,2 C,2 | B,,4 A,,4 | z8 | F,3 E, D,2 C,2 | G,4 D,4 | _E,6 D,2 | C,2 B,,2 A,,4 | G,,8 | %78
w: de _ miei mar-|ti- ri,||de _ miei mar-|ti- ri,|de _|miei mar- ti-|ri,|
 z4 G,,4- | G,,2 G,,2 B,,4 | F,,3 G,, A,,B,, C,2 | G,,3 A,, B,,C, D,2 | E,2 F,4 C,2- | %83
w: qua|_ son' sta-||ti _ _ _ _|_ _ gl'an-|
 C,D,E,F, G,2 D,2 | B,,C,D,E, F,2 F,,G,, | A,,B,, C,2 A,,2 G,,2 | D,4 G,,4- | G,,8 |] %88
w: * * * * ni e'i|me- * * * si'e l'ho- *||* re.|_|

